outputs/icons/communication/email_reply_all_round.svg

<svg xmlns="http://www.w3.org/2000/svg" width="1200" height="1200" fill="none"><path fill="#000" d="M350 400v-89.644c0-22.273-26.928-33.428-42.678-17.678L17.678 582.32c-9.763 9.765-9.763 25.595 0 35.36l289.644 289.64c15.75 15.75 42.678 4.595 42.678-17.675V800L150 600zm300 50V310.356c0-22.273-26.93-33.428-42.68-17.678L317.678 582.32c-9.764 9.765-9.764 25.595 0 35.36L607.32 907.32c15.75 15.75 42.68 4.595 42.68-17.675V745c250 0 425 80 550 255-50-250-200-500-550-550"/></svg>

<svg width="1200" height="1200" viewBox="0 0 1200 1200" fill="none" xmlns="http://www.w3.org/2000/svg"><path d="M350 400V310.356C350 288.083 323.072 276.928 307.322 292.678L17.678 582.32C7.915 592.085 7.915 607.915 17.678 617.68L307.322 907.32C323.072 923.07 350 911.915 350 889.645V800L150 600L350 400ZM650 450V310.356C650 288.083 623.07 276.928 607.32 292.678L317.678 582.32C307.914 592.085 307.914 607.915 317.678 617.68L607.32 907.32C623.07 923.07 650 911.915 650 889.645V745C900 745 1075 825 1200 1000C1150 750 1000 500 650 450Z" fill="black"/></svg>
